X: 36607
T: Shamrock, The
R: slip jig
M: 9/8
K: Gmajor
|:D3 FED FGA|D3 FED cBA|D3 FED FGA|Bcd A2 G FED:|
|:FGA D3 A3|FGA D3 FED|FGA AF/G/A D3|Bcd A2 G FED:|

